svg/transport/train_2_line.svg

<?xml version="1.0" encoding="UTF-8"?>
<svg width="24px" height="24px" viewBox="0 0 24 24" version="1.1" xmlns="http://www.w3.org/2000/svg" xmlns:xlink="http://www.w3.org/1999/xlink">
    <title>train_2_line</title>
    <g id="页面-1" stroke="none" stroke-width="1" fill="none" fill-rule="evenodd">
        <g id="Transport" transform="translate(-912.000000, 0.000000)">
            <g id="train_2_line" transform="translate(912.000000, 0.000000)">
                 <path d="M24,0 L24,24 L0,24 L0,0 L24,0 Z M12.5934901,23.257841 L12.5819402,23.2595131 L12.5108777,23.2950439 L12.4918791,23.2987469 L12.4918791,23.2987469 L12.4767152,23.2950439 L12.4056548,23.2595131 C12.3958229,23.2563662 12.3870493,23.2590235 12.3821421,23.2649074 L12.3780323,23.275831 L12.360941,23.7031097 L12.3658947,23.7234994 L12.3769048,23.7357139 L12.4804777,23.8096931 L12.4953491,23.8136134 L12.4953491,23.8136134 L12.5071152,23.8096931 L12.6106902,23.7357139 L12.6232938,23.7196733 L12.6232938,23.7196733 L12.6266527,23.7031097 L12.609561,23.275831 C12.6075724,23.2657013 12.6010112,23.2592993 12.5934901,23.257841 L12.5934901,23.257841 Z M12.8583906,23.1452862 L12.8445485,23.1473072 L12.6598443,23.2396597 L12.6498822,23.2499052 L12.6498822,23.2499052 L12.6471943,23.2611114 L12.6650943,23.6906389 L12.6699349,23.7034178 L12.6699349,23.7034178 L12.678386,23.7104931 L12.8793402,23.8032389 C12.8914285,23.8068999 12.9022333,23.8029875 12.9078286,23.7952264 L12.9118235,23.7811639 L12.8776777,23.1665331 C12.8752882,23.1545897 12.8674102,23.1470016 12.8583906,23.1452862 L12.8583906,23.1452862 Z M12.1430473,23.1473072 C12.1332178,23.1423925 12.1221763,23.1452606 12.1156365,23.1525954 L12.1099173,23.1665331 L12.0757714,23.7811639 C12.0751323,23.7926639 12.0828099,23.8018602 12.0926481,23.8045676 L12.108256,23.8032389 L12.3092106,23.7104931 L12.3186497,23.7024347 L12.3186497,23.7024347 L12.3225043,23.6906389 L12.340401,23.2611114 L12.337245,23.2485176 L12.337245,23.2485176 L12.3277531,23.2396597 L12.1430473,23.1473072 Z" id="MingCute" fill-rule="nonzero"></path>
                <path d="M17,2 C19.1421576,2 20.8910766,3.68396753 20.9951046,5.80035957 L21,6 L21,15 C21,16.8412071 19.7559578,18.3918371 18.0626534,18.8572892 L17.8727,18.9045 L19.6,20.2 C20.0418,20.5314 20.1314,21.1582 19.8,21.6 C19.4940923,22.0078154 18.9364828,22.1155314 18.5050192,21.8690349 L18.4,21.8 L14.6667,19 L9.33333,19 L5.6,21.8 C5.15817,22.1314 4.53137,22.0418 4.2,21.6 C3.89412,21.1921846 3.94688521,20.6267361 4.30432413,20.281502 L4.4,20.2 L6.12731,18.9045 C4.40175929,18.5205214 3.09613675,17.0219353 3.00507895,15.2033424 L3,15 L3,6 C3,3.85780364 4.68396753,2.10892107 6.80035957,2.0048953 L7,2 L17,2 Z M17,4 L7,4 C5.89543,4 5,4.89543 5,6 L5,15 C5,16.1046 5.89543,17 7,17 L17,17 C18.1046,17 19,16.1046 19,15 L19,6 C19,4.89543 18.1046,4 17,4 Z M8.25,13.25 C8.94036,13.25 9.5,13.8096 9.5,14.5 C9.5,15.1904 8.94036,15.75 8.25,15.75 C7.55964,15.75 7,15.1904 7,14.5 C7,13.8096 7.55964,13.25 8.25,13.25 Z M15.75,13.25 C16.4404,13.25 17,13.8096 17,14.5 C17,15.1904 16.4404,15.75 15.75,15.75 C15.0596,15.75 14.5,15.1904 14.5,14.5 C14.5,13.8096 15.0596,13.25 15.75,13.25 Z M16.5,6 C17.2796706,6 17.9204457,6.59488554 17.9931332,7.35553954 L18,7.5 L18,10.5 C18,11.2796706 17.4050879,11.9204457 16.6444558,11.9931332 L16.5,12 L7.5,12 C6.72030118,12 6.079551,11.4050879 6.00686655,10.6444558 L6,10.5 L6,7.5 C6,6.72030118 6.59488554,6.079551 7.35553954,6.00686655 L7.5,6 L16.5,6 Z M16,8 L8,8 L8,10 L16,10 L16,8 Z" id="形状" fill="#09244B"></path>
            </g>
        </g>
    </g>
</svg>

<svg xmlns="http://www.w3.org/2000/svg" width="24" height="24"><g fill="none" fill-rule="evenodd"><path d="M24 0v24H0V0h24ZM12.593 23.258l-.011.002-.071.035-.02.004-.014-.004-.071-.035c-.01-.004-.019-.001-.024.005l-.004.01-.017.428.005.02.01.013.104.074.015.004.012-.004.104-.074.012-.016.004-.017-.017-.427c-.002-.01-.009-.017-.017-.018Zm.265-.113-.013.002-.185.093-.01.01-.003.011.018.43.005.012.008.007.201.093c.012.004.023 0 .029-.008l.004-.014-.034-.614c-.003-.012-.01-.02-.02-.022Zm-.715.002a.023.023 0 0 0-.027.006l-.006.014-.034.614c0 .012.007.02.017.024l.015-.002.201-.093.01-.008.004-.011.017-.43-.003-.012-.01-.01-.184-.092Z"/><path fill="#09244B" d="M17 2a4 4 0 0 1 3.995 3.8L21 6v9a4.002 4.002 0 0 1-2.937 3.857l-.19.047L19.6 20.2a1 1 0 0 1-1.095 1.669L18.4 21.8 14.667 19H9.333L5.6 21.8a1 1 0 0 1-1.296-1.518L4.4 20.2l1.727-1.296a4.002 4.002 0 0 1-3.122-3.7L3 15V6a4 4 0 0 1 3.8-3.995L7 2h10Zm0 2H7a2 2 0 0 0-2 2v9a2 2 0 0 0 2 2h10a2 2 0 0 0 2-2V6a2 2 0 0 0-2-2Zm-8.75 9.25a1.25 1.25 0 1 1 0 2.5 1.25 1.25 0 0 1 0-2.5Zm7.5 0a1.25 1.25 0 1 1 0 2.5 1.25 1.25 0 0 1 0-2.5ZM16.5 6a1.5 1.5 0 0 1 1.493 1.356L18 7.5v3a1.5 1.5 0 0 1-1.356 1.493L16.5 12h-9a1.5 1.5 0 0 1-1.493-1.356L6 10.5v-3a1.5 1.5 0 0 1 1.356-1.493L7.5 6h9ZM16 8H8v2h8V8Z"/></g></svg>
